X: 1179
T: Planxty Hewlett
B: ralph
B: steve tunes
M:3/4
R: waltz
Q: 1/4=100
K:Dmajor
V:1 
AA|:"D"D2 D2 FG|"A"AB c2 A2|"D"d2 f2 fg|"D"fe d3B|
 "D"A2 F2 F2|"G"G3A BG|"D"AF D2 D2|1 "D"D4 AA:|2 D4 AB||
 "D"A2 D2 AB|"D"A2 D2 AB|"D"A2 d2 de|"D"dc BA GF|
 "G"G2 G,2 GA|"G"G2 G,2 GA|"G"G2 GA BG|"D"AF D2 D2|
 "D"FE F2 G2|"A"AB c2 A2|"D"fe fg ag|"D"fe d3B|
 "D"A2 F2 F2|"G"G3A BG|"D"AF D2 D2|"D"D6||
% abcbook-tune_id 63453cb772788b136bc2f722


% abcbook-boost 0
% abcbook-tablature 
% abcbook-transpose 
% abcbook-lastupdated 1665992749194
% abcbook-soundfonts 
% abcbook-repeats 3


